**kern
*clefG2
*k[]
*M4/4
=1
1d 1f 1a
=2
1c 1e 1g
=3||
[1d 1f 1a 1dd
=4
*^
1e 1g 1ee	2d]
.	2c
*v	*v
=5||
1e 1g 1cc
=6
1d 1f 1a
=7||
[1e 1g 1cc 1ee
=8
*^
1f 1a 1ff	2e]
.	2d
=9||	=9||
2r	2.G
4d 4g 4b	.
4e 4g 4cc	[4c
=10	=10
2.d 2.g 2.dd	2c]
.	4B
4r	4r
*v	*v
=11||
[1f 1a 1a 1dd
!!linebreak:original
=12
*^
1g 1cc 1ee	2f]
.	2e
*v	*v
=13||
[1B 1g 1g 1dd
=14
*^
1e 1g 1cc	2B]
.	2c
=15||	=15||
1cc [1ff 1aa	4r
.	4f
.	4a
.	4f
=16	=16
*	*^
1cc 1gg	2ff]	4c/
.	.	4e/
.	2ee	4g/
.	.	4c/
*	*v	*v
=17||	=17||
2g 2g [2dd	2B
=18	=18
2dd]	1c 1e 1g
2cc	.
=19||	=19||
2f 2f [2b	2d
=20	=20
2b]	1c 1e 1g
2cc	.
*v	*v
==
*-
!!!system-decoration: [(s1
